X:1
T: Miss Drummond of Perth
C:Niel Gow
R:Strathspey
Q: 128
K:Am
M:4/4
L:1/16
|:a2|AA3 e3d Bd3 e4|d3g Bg3 dg3 BG3|AA3 e3d Bcd2 efg2|ae3 g3B A4 A2e2|
AA3 e3d Bd3 e4|d3g Bg3 dg3 BG3|AA3 e3d Bcd2 efg2|ae3 g3B A4 A2e2|
aa3 e3a ca3 e3^f|gg3 d3g B3g d3g|aa3 e3a c3a e3g|ae3 g3B A4 A2^g2|
aa3 e3a ca3 e3^f|gg3 d3g B3g d3g|aa3 e3a gb3 e3g|ae3 g3B A4 A2:|
